!!!!SEGMENT: pl-sa--l-1636--099_anonim--witaj-krolowo-nieba.krn
!!!cenid: 17xx:806
!!!COM: Anonim
!!!COM-rismid: pe30004985
!!!CDT:
!!!CNT:
!!!OTL: Witaj Królowo Nieba
!!!PDT:
!!!AGN: Sacred
!!!SMS-siglum: PL-SA
!!!SMS-shelfmark: L 1636
!!!SMS-shelfwork: 099 W
!!!SMS-variant:
!!!SMS-altvar:
!!!NIFC-rismid: 1001087455
!!!URL-scan: http://repozytorium.nifc.pl/skany/pl-sa-nut--l1636
!!!ONB-nifc: 46r, skan 0041, s. 5-6
**kern	**kern
*part1	*part1
*staff2	*staff1
*I'keyb	*
*clefF4	*clefC1
*k[f#c#]	*k[f#c#]
*D:	*D:
*M2/2	*M2/2
*met(c|)	*met(c|)
=1	=1
*^	*
*	*	*^
!	!	!LO:TX:a:t=P:problem:znaki przykluczowe [f# c# f#]	!
!LO:TX:a:t=P:problem:znaki przykluczowe [c# f# c#]	!	!	!
!	!	!LO:TX:b:i:t=Witaj Królowa Nieba	!
2D/	2DD/	2a 2f# 2d/	2ryy
!LO:TX:a:t=P:problem:2\ 4\ 8\ 16\ right:global	!	!LO:TX:a:t=P:problem:2\ 4\ 8\ 16\ right:global	!
8GG/L	2ryy	16b/LL	8g\L
.	.	16cc#/JJ	.
8AA/	.	16a/LL	8f#\J
.	.	16b/JJ	.
8BB/	.	16g/LL	8e\L
.	.	16a/JJ	.
*	*	*Xtuplet	*
8GG/J	.	24f#/LL	8d\J
.	.	24g/	.
.	.	24f#/JJ	.
=2	=2	=2	=2
2A/	2AA/	2e/	8d\L
.	.	.	16c#\L
.	.	.	16B\JJ
.	.	.	4c#\
2D/	2DD/	2f# 2d 2A/	2ryy
*	*	*v	*v
*v	*v	*
=3	=3
*	*^
4D/	4dd/	8f#\L
.	.	8g#X\J
4AA/	4cc#/	4a\
4E\	4b/	4g#X\
8C#/L	4cc#/	4a\
8D/J	.	.
=4	=4	=4
*^	*	*
*	*	*	*^
*2\right	*	*	*	*
2E\	2EE/	2b/	8a\L	4ryy
!	!	!	!LO:TX:a:t=P:problem:# above	!
.	.	.	16g#\L	.
.	.	.	16f#\JJ	.
.	.	.	4g#/	8e\L
.	.	.	.	8d\J
2A/	2AA/	2a 2e 2c#/	2ryy	2ryy
*	*	*	*v	*v
*	*	*v	*v
*v	*v	*
=5!|:	=5!|:
*	*^
*^	*	*
4D/	2ryy	4dd 4a/	4f#\
4F#\	.	4a/	4f#\
4G\	4GG/	4b/	4g\
4F#/	4D\	8a/L	4f#\
.	.	8b/J	.
*v	*v	*	*
!!LO:LB:g=original
=6	=6	=6
*^	*	*
*	*	*	*2\right
[>4E 4C#/	4ryy	8g/L	2e\
.	.	16a/L	.
.	.	16b/JJ	.
4E] 4C#/ 4AA/	4ryy	8a/L	.
.	.	16a/L	.
.	.	16g/JJ	.
2D/	2DD/	2f# 2d/	2ryy
*	*	*v	*v
*v	*v	*
=7	=7
*	*^
8D\L	4a/	4f#\
8E\	.	.
8F#\	8a/L	4f#\
8D\J	8b/J	.
8E\L	4g/	4e\
16BB\L	.	.
16C#\JJ	.	.
16D/LL	4f#/	4d\
16BB/	.	.
16GG/	.	.
16EE/JJ	.	.
=8	=8	=8
*	*	*^
*^	*	*	*
2A/	2AA/	2e/	8d\L	4ryy
.	.	.	16c#\L	.
.	.	.	16B\JJ	.
.	.	.	4c#X/	8A\L
.	.	.	.	8G\J
!	!	!	!	!LO:TX:a:t=P:problem:utwór kończy się kreską z obustronną repetycją
2F# 2D/	2DD/	2d 2A 2F#/	2ryy	2ryy
*	*	*	*v	*v
*	*	*v	*v
*v	*v	*
==	==
*-	*-
!!!system-decoration: {(s1,s2)}
!!!RDF**kern: > = above
!!!RDF**kern: < = below
!!!EED: Mateusz Mrugas
!!!EST: 2020-12-09
!!!ENC: Marta Chmielewska
!!!END: 2020-06-13
